src/svg/train.svg

<svg height="1000" width="857.143" xmlns="http://www.w3.org/2000/svg"><path d="M607.104 .064q103.23 0 176.607 52.173t73.377 126.387v499.968q0 72.54 -70.029 123.876t-170.469 54.126l118.854 112.716q8.928 8.37 4.464 19.53t-16.74 11.16h-589.248q-12.276 0 -16.74 -11.16t4.464 -19.53l118.854 -112.716q-100.44 -2.79 -170.469 -54.126t-70.029 -123.876v-499.968q0 -74.214 73.377 -126.387t176.607 -52.173h357.12zm-178.56 749.952q44.64 0 75.888 -31.248t31.248 -75.888 -31.248 -75.888 -75.888 -31.248 -75.888 31.248 -31.248 75.888 31.248 75.888 75.888 31.248zm321.408 -321.408v-285.696h-642.816v285.696h642.816z"/></svg>

<svg height="1000" width="857.1" xmlns="http://www.w3.org/2000/svg"><path d="M607.1 0q103.3 0 176.7 52.2t73.3 126.4v500q0 72.5 -70 123.9t-170.5 54.1l118.9 112.7q8.9 8.4 4.5 19.5t-16.8 11.2H133.9q-12.2 0 -16.7 -11.2t4.5 -19.5L240.5 856.6Q140.1 853.8 70 802.5T0 678.6v-500Q0 104.4 73.4 52.2T250 0h357.1zM428.6 750q44.6 0 75.9 -31.2t31.2 -75.9T504.5 567t-75.9 -31.3T352.7 567t-31.3 75.9 31.3 75.9 75.9 31.2zM750 428.6V142.9H107.1v285.7H750z"/></svg>
